icons/eye-slash.svg

<?xml version="1.0" encoding="UTF-8" standalone="no"?>
<!-- Created with Inkscape (http://www.inkscape.org/) -->

<svg
   width="1500mm"
   height="1500mm"
   viewBox="0 0 1500 1500"
   version="1.1"
   id="svg5"
   xml:space="preserve"
   inkscape:export-filename="pleroma.svg"
   inkscape:export-xdpi="96"
   inkscape:export-ydpi="96"
   inkscape:version="1.2.1 (9c6d41e410, 2022-07-14)"
   sodipodi:docname="eye-slash.svg"
   xmlns:inkscape="http://www.inkscape.org/namespaces/inkscape"
   xmlns:sodipodi="http://sodipodi.sourceforge.net/DTD/sodipodi-0.dtd"
   xmlns="http://www.w3.org/2000/svg"
   xmlns:svg="http://www.w3.org/2000/svg"><sodipodi:namedview
     id="namedview7"
     pagecolor="#393939"
     bordercolor="#000000"
     borderopacity="0.24705882"
     inkscape:showpageshadow="2"
     inkscape:pageopacity="0"
     inkscape:pagecheckerboard="0"
     inkscape:deskcolor="#3c3c3c"
     inkscape:document-units="mm"
     showgrid="false"
     inkscape:zoom="0.125"
     inkscape:cx="2348"
     inkscape:cy="2712"
     inkscape:window-width="1920"
     inkscape:window-height="1009"
     inkscape:window-x="-8"
     inkscape:window-y="-8"
     inkscape:window-maximized="1"
     inkscape:current-layer="layer1" /><defs
     id="defs2" /><g
     inkscape:label="Layer 1"
     inkscape:groupmode="layer"
     id="layer1"><circle
       r="0"
       style="fill:none;stroke:#000000;stroke-width:110.653;stroke-miterlimit:4;stroke-dasharray:none;stroke-opacity:1"
       cy="1221.2555"
       cx="840.45007"
       id="path3713" /><path
       d="M 464.5647,1063.8949 529.85488,945.8705 C 432.75665,875.558 374.99997,762.5556 374.99997,642.857 c 0,-66.1272 17.57812,-131.4174 51.06028,-188.3369 C 295.4799,521.4842 186.66294,626.953 107.14284,750 194.19643,884.7656 317.24327,997.768 464.5647,1063.8949 Z M 790.17852,428.5714 c 0,-21.7635 -18.4152,-40.1785 -40.1785,-40.1785 -139.788,0 -254.46435,114.6762 -254.46435,254.4641 0,21.7635 18.4152,40.1786 40.17857,40.1786 21.76341,0 40.17858,-18.4151 40.17858,-40.1786 0,-96.2612 78.683,-174.107 174.1072,-174.107 21.7633,0 40.1785,-18.4151 40.1785,-40.1786 z M 1094.029,268.6942 c 0,1.6739 0,5.8595 -0.8371,7.5334 -176.61828,315.5691 -351.56248,632.8125 -528.18077,948.3816 l -41.01561,74.4981 c -5.02233,8.3704 -14.22993,13.3927 -23.43753,13.3927 -15.06696,0 -94.58703,-48.549 -112.16514,-58.5936 -8.37056,-5.0224 -13.39288,-13.3931 -13.39288,-23.4377 0,-13.3928 28.45983,-58.5937 36.83036,-72.8236 C 249.44196,1083.9842 113.00221,958.4262 16.74106,807.7565 5.85938,791.0157 -2e-5,770.9264 -2e-5,750 c 0,-20.0893 5.8594,-41.0157 16.74108,-57.7569 165.73661,-254.4641 424.38615,-424.386 733.25896,-424.386 50.2232,0 101.2834,5.0224 150.6696,14.2299 l 45.2009,-81.1943 c 5.0223,-8.3704 13.3928,-13.3927 23.4375,-13.3927 15.067,0 93.74998,48.549 111.32808,58.5936 8.3706,5.0224 13.3929,13.3931 13.3929,22.6006 z M 1125,642.857 c 0,155.692 -96.2612,294.6431 -241.07148,349.8886 L 1118.3035,572.5445 c 4.1853,23.4377 6.6965,46.8751 6.6965,70.3125 z M 1500,750 c 0,21.7635 -5.8594,39.3415 -16.7411,57.7565 -25.9487,42.6899 -58.5938,83.7056 -91.2388,121.3728 -164.0625,188.3373 -390.067,303.0136 -642.02008,303.0136 l 61.9419,-110.4911 C 1055.5245,1100.7254 1262.2768,952.5671 1392.8571,750 1330.9152,653.7388 1251.3951,569.1964 1156.808,503.9062 l 52.7344,-93.7498 c 103.7946,69.4753 208.4263,174.107 273.7165,282.0867 C 1494.1406,710.6585 1500,728.2365 1500,750 Z"
       id="path75715"
       style="fill:#f9f9f9;stroke-width:0.837053" /></g></svg>

<?xml version="1.0" encoding="UTF-8"?>
<!-- Created with Inkscape (http://www.inkscape.org/) -->
<svg id="svg5" width="1500mm" height="1500mm" version="1.1" viewBox="0 0 1500 1500" xml:space="preserve" xmlns="http://www.w3.org/2000/svg"><g id="layer1"><circle id="path3713" cx="840.45" cy="1221.3" r="0" fill="none" stroke="#000" stroke-width="110.65"/><path id="path75715" d="m464.56 1063.9 65.29-118.02c-97.098-70.312-154.85-183.31-154.85-303.01 0-66.127 17.578-131.42 51.06-188.34-130.58 66.964-239.4 172.43-318.92 295.48 87.054 134.77 210.1 247.77 357.42 313.89zm325.61-635.32c0-21.764-18.415-40.178-40.178-40.178-139.79 0-254.46 114.68-254.46 254.46 0 21.764 18.415 40.179 40.179 40.179 21.763 0 40.179-18.415 40.179-40.179 0-96.261 78.683-174.11 174.11-174.11 21.763 0 40.178-18.415 40.178-40.179zm303.85-159.88c0 1.6739 0 5.8595-0.8371 7.5334-176.62 315.57-351.56 632.81-528.18 948.38l-41.016 74.498c-5.0223 8.3704-14.23 13.393-23.438 13.393-15.067 0-94.587-48.549-112.17-58.594-8.3706-5.0224-13.393-13.393-13.393-23.438 0-13.393 28.46-58.594 36.83-72.824-162.39-73.661-298.83-199.22-395.09-349.89-10.882-16.741-16.741-36.83-16.741-57.756 0-20.089 5.8594-41.016 16.741-57.757 165.74-254.46 424.39-424.39 733.26-424.39 50.223 0 101.28 5.0224 150.67 14.23l45.201-81.194c5.0223-8.3704 13.393-13.393 23.438-13.393 15.067 0 93.75 48.549 111.33 58.594 8.3706 5.0224 13.393 13.393 13.393 22.601zm30.971 374.16c0 155.69-96.261 294.64-241.07 349.89l234.37-420.2c4.1853 23.438 6.6965 46.875 6.6965 70.312zm375 107.14c0 21.764-5.8594 39.342-16.741 57.756-25.949 42.69-58.594 83.706-91.239 121.37-164.06 188.34-390.07 303.01-642.02 303.01l61.942-110.49c243.58-20.926 450.33-169.08 580.92-371.65-61.942-96.261-141.46-180.8-236.05-246.09l52.734-93.75c103.79 69.475 208.43 174.11 273.72 282.09 10.882 18.415 16.741 35.993 16.741 57.757z" fill="#f9f9f9" stroke-width=".83705"/></g></svg>
